dist/img/first-lesson/icon-1.svg

<svg width="42" height="42" viewBox="0 0 42 42" fill="none" xmlns="http://www.w3.org/2000/svg">
<g clip-path="url(#clip0_84_24204)">
<path d="M4.08655 23.4955C7.30584 18.8614 9.19951 15.876 10.5802 13.6697C5.27427 14.139 0.188477 20.7411 0.188477 20.7411L3.69064 24.2431C3.79226 23.9842 3.92201 23.7327 4.08655 23.4955Z" fill="url(#paint0_linear_84_24204)"/>
<path d="M17.7607 38.3132L21.2606 41.8129C21.2606 41.8129 27.8625 36.7275 28.3319 31.4218C26.1263 32.8019 23.1418 34.6948 18.5062 37.9149C18.2717 38.0777 18.0217 38.2106 17.7607 38.3132Z" fill="url(#paint1_linear_84_24204)"/>
<path d="M12.4381 36.5036C11.8373 36.7464 11.2468 37.0044 10.6312 37.2101C8.98702 37.7597 7.29361 38.131 5.5767 38.3679C4.85703 38.4673 4.1307 38.5515 3.40315 38.6067C3.41008 38.5169 3.41674 38.4269 3.42435 38.3372C3.57448 36.5879 3.84063 34.8476 4.27064 33.1441C4.47783 32.322 4.74223 31.5229 5.02604 30.7248C5.20253 30.2286 5.42277 29.7538 5.6449 29.2789L5.25987 28.8942C4.40352 29.4694 3.65871 30.1963 3.02667 31.0187C2.09098 32.2364 1.38965 33.616 0.899317 35.0697C0.372573 36.6307 0.058456 38.2839 0.00954501 39.9319C0.00261596 40.1634 -0.0132801 40.3999 0.0225879 40.6297C0.0687816 40.9264 0.199075 41.2072 0.394855 41.4348C0.588597 41.6599 0.843613 41.8299 1.12621 41.9211C1.36343 41.9976 1.602 41.9989 1.84805 41.997C3.34419 41.9845 4.86355 41.7246 6.29569 41.2991C8.91501 40.5208 11.5593 39.0568 13.1093 36.7433L12.7345 36.3689C12.6363 36.415 12.5378 36.4603 12.4381 36.5036Z" fill="url(#paint2_linear_84_24204)"/>
<path d="M41.5743 0.427831C41.5743 0.427831 41.574 0.427695 41.5738 0.427424C41.3012 0.155017 40.9318 0.00244141 40.5473 0.00244141C40.5378 0.00244141 40.5282 0.00257727 40.5187 0.00271313C35.8436 0.0944212 24.3092 0.968841 18.1836 7.09467C15.4029 9.8754 14.4991 11.3229 12.5182 14.495C11.0916 16.7789 9.13859 19.9072 5.56918 25.0447C5.16825 25.6222 5.23794 26.4038 5.73507 26.9006L15.0999 36.2656C15.3809 36.5467 15.753 36.6913 16.1276 36.6913C16.4155 36.6913 16.7047 36.6059 16.9558 36.4316C22.0953 32.8614 25.2223 30.9088 27.5053 29.4827C30.6772 27.502 32.125 26.5979 34.9063 23.8169C41.0427 17.6802 41.911 6.15341 41.999 1.48227C42.0068 1.08786 41.8532 0.707167 41.5743 0.427831ZM30.7301 18.0979C28.8447 19.9831 25.7883 19.9831 23.9029 18.0979C22.0173 16.2125 22.0175 13.1562 23.9032 11.271C25.7883 9.38561 28.8447 9.38534 30.7301 11.2706C32.6149 13.1558 32.6152 16.2128 30.7301 18.0979Z" fill="url(#paint3_linear_84_24204)"/>
</g>
<defs>
<linearGradient id="paint0_linear_84_24204" x1="11.308" y1="19.4275" x2="5.93071" y2="-31.1553" gradientUnits="userSpaceOnUse">
<stop offset="0.0416667" stop-color="#4E9CDB"/>
<stop offset="0.46875" stop-color="#5761D7"/>
<stop offset="0.9999" stop-color="#7628DA"/>
</linearGradient>
<linearGradient id="paint1_linear_84_24204" x1="29.0723" y1="37.0803" x2="23.9633" y2="-12.6673" gradientUnits="userSpaceOnUse">
<stop offset="0.0416667" stop-color="#4E9CDB"/>
<stop offset="0.46875" stop-color="#5761D7"/>
<stop offset="0.9999" stop-color="#7628DA"/>
</linearGradient>
<linearGradient id="paint2_linear_84_24204" x1="14.0275" y1="36.0296" x2="7.47859" y2="-26.6801" gradientUnits="userSpaceOnUse">
<stop offset="0.0416667" stop-color="#4E9CDB"/>
<stop offset="0.46875" stop-color="#5761D7"/>
<stop offset="0.9999" stop-color="#7628DA"/>
</linearGradient>
<linearGradient id="paint3_linear_84_24204" x1="44.5692" y1="19.9815" x2="26.2247" y2="-155.603" gradientUnits="userSpaceOnUse">
<stop offset="0.0416667" stop-color="#4E9CDB"/>
<stop offset="0.46875" stop-color="#5761D7"/>
<stop offset="0.9999" stop-color="#7628DA"/>
</linearGradient>
<clipPath id="clip0_84_24204">
<rect width="42" height="42" fill="white"/>
</clipPath>
</defs>
</svg>

<svg width="42" height="42" viewBox="0 0 42 42" fill="none" xmlns="http://www.w3.org/2000/svg"><g clip-path="url(#clip0_84_24204)"><path d="M4.087 23.495c3.219-4.634 5.113-7.619 6.493-9.825C5.274 14.139.188 20.74.188 20.74l3.503 3.502a3.64 3.64 0 01.396-.747z" fill="url(#paint0_linear_84_24204)"/><path d="M17.76 38.313l3.5 3.5s6.602-5.086 7.072-10.391c-2.206 1.38-5.19 3.273-9.826 6.493a3.643 3.643 0 01-.745.398z" fill="url(#paint1_linear_84_24204)"/><path d="M12.438 36.504c-.6.242-1.191.5-1.807.706-1.644.55-3.337.921-5.054 1.158-.72.1-1.446.183-2.174.239l.021-.27c.15-1.75.417-3.49.847-5.193.207-.822.471-1.621.755-2.42.177-.495.397-.97.619-1.445l-.385-.385a9.553 9.553 0 00-2.233 2.125c-.936 1.217-1.637 2.597-2.128 4.05a16.86 16.86 0 00-.89 4.863c-.006.231-.022.468.014.698a1.622 1.622 0 001.103 1.291c.237.077.476.078.722.076 1.496-.013 3.016-.272 4.448-.698 2.619-.778 5.263-2.242 6.813-4.556l-.374-.374c-.099.046-.197.091-.297.135z" fill="url(#paint2_linear_84_24204)"/><path d="M41.574.428a1.452 1.452 0 00-1.055-.425c-4.675.091-16.21.966-22.335 7.092-2.781 2.78-3.685 4.228-5.666 7.4-1.426 2.284-3.38 5.412-6.949 10.55-.4.577-.331 1.359.166 1.856l9.365 9.365a1.45 1.45 0 001.856.166c5.14-3.57 8.266-5.523 10.55-6.95 3.171-1.98 4.619-2.884 7.4-5.665C41.043 17.68 41.911 6.153 42 1.482a1.452 1.452 0 00-.425-1.054zM30.73 18.098a4.828 4.828 0 11-6.827-6.828 4.828 4.828 0 016.827 6.828z" fill="url(#paint3_linear_84_24204)"/></g><defs><linearGradient id="paint0_linear_84_24204" x1="11.308" y1="19.427" x2="5.931" y2="-31.155" gradientUnits="userSpaceOnUse"><stop offset=".042" stop-color="#4E9CDB"/><stop offset=".469" stop-color="#5761D7"/><stop offset="1" stop-color="#7628DA"/></linearGradient><linearGradient id="paint1_linear_84_24204" x1="29.072" y1="37.08" x2="23.963" y2="-12.667" gradientUnits="userSpaceOnUse"><stop offset=".042" stop-color="#4E9CDB"/><stop offset=".469" stop-color="#5761D7"/><stop offset="1" stop-color="#7628DA"/></linearGradient><linearGradient id="paint2_linear_84_24204" x1="14.027" y1="36.03" x2="7.479" y2="-26.68" gradientUnits="userSpaceOnUse"><stop offset=".042" stop-color="#4E9CDB"/><stop offset=".469" stop-color="#5761D7"/><stop offset="1" stop-color="#7628DA"/></linearGradient><linearGradient id="paint3_linear_84_24204" x1="44.569" y1="19.982" x2="26.225" y2="-155.603" gradientUnits="userSpaceOnUse"><stop offset=".042" stop-color="#4E9CDB"/><stop offset=".469" stop-color="#5761D7"/><stop offset="1" stop-color="#7628DA"/></linearGradient><clipPath id="clip0_84_24204"><path fill="#fff" d="M0 0h42v42H0z"/></clipPath></defs></svg>
